img/icons/ticket.svg

<?xml version="1.0" encoding="utf-8"?>
<!-- Generator: Adobe Illustrator 17.1.0, SVG Export Plug-In . SVG Version: 6.00 Build 0)  -->
<!DOCTYPE svg PUBLIC "-//W3C//DTD SVG 1.1//EN" "http://www.w3.org/Graphics/SVG/1.1/DTD/svg11.dtd">
<svg version="1.1"  xmlns="http://www.w3.org/2000/svg" xmlns:xlink="http://www.w3.org/1999/xlink" x="0px" y="0px"
	 viewBox="0 0 24 24" enable-background="new 0 0 24 24" xml:space="preserve">
<g >
	<rect  y="0" fill="none" width="24" height="24"/>
	<path fill="none" stroke="#000000" stroke-width="2" stroke-miterlimit="10" d="M23,9c-1.66,0-3,1.34-3,3s1.34,3,3,3v5H1v-5
		c1.66,0,3-1.34,3-3S2.66,9,1,9V4h22V9z M17,8H7v8h10V8z"/>
</g>
</svg>

<svg xmlns="http://www.w3.org/2000/svg" width="24" height="24" viewBox="0 0 24 24">
  <path fill="none" stroke="#000000" stroke-width="2" d="M7,16 L17,16 L17,8 L7,8 L7,16 Z M20,12 C20,14 21,15 23,15 L23,20 L1,20 L1,15 C3,15 4,14 4,12 C4,10 3,9 1,9 L1,4 L23,4 L23,9 C21,9 20,10 20,12 Z"/>
</svg>
